X:1
T:Title
%%score 1 ( 2 3 )
L:1/8
Q:1/4=97
M:4/4
K:Eb
V:1 treble nm="Grand Piano, Soprano"
V:2 bass nm="Choir Pad, Bass"
V:3 bass 
V:1
 E2 [EG]>[EA] [EB]2 [Ee]>[Ee] | [Bd]2 [Ac]2 [GB]2 z2 | [Ec]2 [EB]>[EG] [B,E]2 [EF]>[EG] | %3
w: By~Harrison~Millard * * * * *|||
 [DF]6 z2 | E2 [EG]>[EA] [EB]2 [Ee]>[Ee] | [Bd]2 [Ac]2 [GB]2 z2 | %6
w: |||
 [Ec]2 [EB]>[EG] [B,E]2 [DF]>[B,E] | [B,E]6 z2 | [DF]2 [Fd]>[Fd] [Fd][Fd][Fd][Fd] | %9
w: |||
 [Ge]2 [GB]>[_Gc] [Fd]2 z2 | [Fc]2 [Fc]>[Fc] [Fc][Fc][FB][Fc] | [Fd]6 z2 | %12
w: |||
 [DF]2 [Fd]>[Fd] [Fd][Fd][Fd][Fd] | [Ge]2 [GB]>[_Gc] [Fd]2 z2 | [Fd]2 [Fc][FB] [Fc]2 [EG][E=A] | %15
w: |||
 [DB]4 z4 | E2 [EG]>[EA] [EB]2 [Ee]>[Ee] | [Bd]2 [Ac]2 [GB]2 z2 | [Ec]2 [EB]>[EG] [CE]2 [EF]>[EG] | %19
w: ||||
 [DF]6 z2 | E2 [EG]>[EA] [EB]2 [Ee]>[Ee] | [Bd]2 [Ac]2 [GB]2 z2 | %22
w: |||
 [Ec]2 [EB]>[EG] [B,E]2 [DF]>[B,E] | [B,E]8 |] %24
w: ||
V:2
 [E,G,]2 E,>F, [E,G,]2 [E,G,]>[E,G,] | E,-[E,B,]CD [E,E]2 z2 | %2
 [E,A,]2 [E,G,]>[E,B,] [E,G,]2 [C,=A,]>[C,A,] | [B,,B,]6 z2 | [E,G,]2 E,>F, [E,G,]2 [E,G,]>[E,G,] | %5
 A,B,CD [E,E]2 z2 | [E,A,]2 [E,G,]>[E,B,] [B,,G,]2 [B,,A,]>[E,G,] | [E,G,]6 z2 | %8
 [B,,B,]2 [B,,B,]>[B,,B,] [B,,B,][B,,B,][B,,B,][B,,B,] | [B,,B,]2 [B,,B,]>[B,,B,] [B,,B,]2 z2 | %10
 [F,=A,]2 [F,A,]>[F,A,] [F,A,][F,A,][F,G,][F,A,] | [B,,B,]6 z2 | %12
 [B,,B,]2 [B,,B,]>[B,,B,] [B,,B,][B,,B,][B,,B,][B,,B,] | [E,B,]2 [E,B,]>[E,B,] [B,,B,]2 z2 | %14
 [F,F]2 [F,E][F,D] [F,E]2 [F,B,][F,C] | B,2 A,2 G,2 F,2 | [E,G,]2 E,>F, [E,G,]2 [E,G,]>[E,G,] | %17
 A,B,CD [E,E]2 z2 | [E,A,]2 [E,G,]>[E,B,] [E,G,]2 [C,=A,]>[C,A,] | [B,,B,]6 z2 | %20
 [E,G,]2 E,>F, [E,G,]2 [E,G,]>[E,G,] | A,B,CD [E,E]2 z2 | %22
 [E,A,]2 [F,G,]>[F,B,] [B,,G,]2 [B,,A,]>[E,G,] | [E,G,]8 |] %24
V:3
 x8 | .A,2 E,2 z4 | x8 | x8 | x8 | E,2 E,2 z4 | x8 | x8 | x8 | x8 | x8 | x8 | x8 | x8 | x8 | %15
 B,,4 z4 | x8 | E,2 E,2 z4 | x8 | x8 | x8 | E,2 E,2 z4 | x8 | x8 |] %24

